assets/images/korzina.svg

<svg width="60" height="60" viewBox="0 0 60 60" fill="none" xmlns="http://www.w3.org/2000/svg">
<path d="M56.1925 12.197C56.2059 12.0376 56.2124 11.8777 56.2124 11.7182C56.2124 7.32773 52.6405 3.75586 48.2501 3.75586C48.1599 3.75586 48.0722 3.75937 47.8679 3.76834L12.0228 3.76582C11.9192 3.76084 11.814 3.75586 11.705 3.75586C7.32147 3.75586 3.75557 7.3207 3.75557 11.7077L3.76659 12.3495H3.74866L3.77157 47.2111L3.76208 48.4054C3.76208 52.743 7.29059 56.2716 11.6277 56.2716C11.7254 56.2716 12.0383 56.2576 12.0437 56.2576L47.7234 56.2625C47.8983 56.2835 48.0877 56.29 48.283 56.29C50.3815 56.29 52.3561 55.4723 53.8423 53.9871C55.329 52.5023 56.1476 50.5308 56.1476 48.4328L56.1391 47.7288H56.1929L56.1925 12.1969V12.197ZM11.7986 52.8505L11.6472 52.8386C9.15551 52.8386 7.18547 50.7959 7.16256 48.1916V19.4927H52.7807L52.8076 47.9215L52.7558 48.0894C52.7244 48.197 52.7089 48.2992 52.7089 48.3923C52.7089 50.7585 50.86 52.7146 48.4988 52.8456L47.8651 52.882V52.8511L11.7986 52.8505ZM52.7801 16.0798H7.16602L7.14405 12.2164L7.19385 12.0451C7.22432 11.9385 7.23967 11.8324 7.23967 11.7377C7.23967 9.26291 9.27446 7.24559 11.8205 7.23715L11.8468 7.23316L48.0681 7.23422L48.2241 7.24611C50.7043 7.24611 52.7222 9.26402 52.7222 11.7442C52.7222 11.8219 52.7337 11.9017 52.7606 12.0098L52.78 12.0616V16.0798H52.7801Z" fill="url(#paint0_linear_878_609)" fill-opacity="0.5"/>
<path d="M40.8791 27.623C40.4172 27.623 39.9818 27.8034 39.6534 28.1318L26.5618 41.2239L20.3085 34.971C19.9837 34.6427 19.5497 34.4618 19.0873 34.4618C18.6249 34.4618 18.1895 34.6422 17.8616 34.9695C17.5348 35.2929 17.3534 35.7254 17.3519 36.1877C17.3509 36.6511 17.5318 37.0875 17.8611 37.4178L25.3347 44.8919C25.6611 45.2177 26.097 45.3971 26.5618 45.3971C27.0262 45.3971 27.462 45.2178 27.7884 44.8914L42.0998 30.5801C42.4266 30.2572 42.608 29.8252 42.6095 29.3623C42.6105 28.897 42.4291 28.4595 42.1008 28.1327C41.7755 27.8039 41.3416 27.623 40.8791 27.623H40.8791Z" fill="url(#paint1_linear_878_609)" fill-opacity="0.5"/>
<defs>
<linearGradient id="paint0_linear_878_609" x1="29.9805" y1="3.75586" x2="29.9805" y2="56.29" gradientUnits="userSpaceOnUse">
<stop stop-color="white"/>
<stop offset="1" stop-color="#999999"/>
</linearGradient>
<linearGradient id="paint1_linear_878_609" x1="29.9807" y1="27.623" x2="29.9807" y2="45.3971" gradientUnits="userSpaceOnUse">
<stop stop-color="white"/>
<stop offset="1" stop-color="#999999"/>
</linearGradient>
</defs>
</svg>

<svg width="60" height="60" fill="none" xmlns="http://www.w3.org/2000/svg"><path d="M56.193 12.197c.013-.16.02-.32.02-.479 0-4.39-3.572-7.962-7.963-7.962-.09 0-.178.003-.382.012l-35.845-.002a6.548 6.548 0 0 0-.318-.01c-4.384 0-7.95 3.565-7.95 7.952l.012.642h-.018l.023 34.861-.01 1.194c0 4.338 3.529 7.867 7.866 7.867.097 0 .41-.014.416-.014l35.68.005c.174.02.364.027.559.027a7.814 7.814 0 0 0 5.56-2.303 7.797 7.797 0 0 0 2.305-5.554l-.009-.704h.054V12.197ZM11.799 52.85l-.152-.011c-2.491 0-4.462-2.043-4.484-4.647v-28.7H52.78l.027 28.43-.052.167a1.09 1.09 0 0 0-.047.303 4.46 4.46 0 0 1-4.21 4.454l-.634.036v-.03L11.8 52.85ZM52.78 16.08H7.166l-.022-3.864.05-.17c.03-.107.046-.214.046-.308 0-2.475 2.034-4.492 4.58-4.5l.027-.005 36.221.001.156.012a4.503 4.503 0 0 1 4.498 4.498c0 .078.012.158.039.266l.019.052v4.018Z" fill="url(#a)" fill-opacity=".5"/><path d="M40.88 27.623c-.463 0-.898.18-1.227.509L26.562 41.224l-6.254-6.253a1.724 1.724 0 0 0-2.447-.002 1.726 1.726 0 0 0 0 2.448l7.474 7.475c.326.326.762.505 1.227.505.464 0 .9-.18 1.226-.506L42.1 30.581c.327-.324.508-.756.51-1.219a1.72 1.72 0 0 0-.51-1.23 1.706 1.706 0 0 0-1.22-.509Z" fill="url(#b)" fill-opacity=".5"/><defs><linearGradient id="a" x1="29.98" y1="3.756" x2="29.98" y2="56.29" gradientUnits="userSpaceOnUse"><stop stop-color="#fff"/><stop offset="1" stop-color="#999"/></linearGradient><linearGradient id="b" x1="29.981" y1="27.623" x2="29.981" y2="45.397" gradientUnits="userSpaceOnUse"><stop stop-color="#fff"/><stop offset="1" stop-color="#999"/></linearGradient></defs></svg>
